service_frontend/public/images/eosc-perf-logo.4.svg

<?xml version="1.0" encoding="UTF-8" standalone="no"?>
<svg
        xmlns:xhtml="http://www.w3.org/1999/xhtml"
        xmlns:dc="http://purl.org/dc/elements/1.1/"
        xmlns:cc="http://creativecommons.org/ns#"
        xmlns:rdf="http://www.w3.org/1999/02/22-rdf-syntax-ns#"
        xmlns="http://www.w3.org/2000/svg"
        xmlns:sodipodi="http://sodipodi.sourceforge.net/DTD/sodipodi-0.dtd"
        xmlns:inkscape="http://www.inkscape.org/namespaces/inkscape"
        version="1.1"
        width="220"
        height="120"
        viewBox="-0.5 -0.5 220 120"
        id="svg95"
        sodipodi:docname="eosc-perf-logo.4.svg"
        inkscape:version="0.92.5 (2060ec1f9f, 2020-04-08)">
  <metadata
          id="metadata99">
    <rdf:RDF>
      <cc:Work
              rdf:about="">
        <dc:format>image/svg+xml</dc:format>
        <dc:type
                rdf:resource="http://purl.org/dc/dcmitype/StillImage"/>
        <dc:title></dc:title>
      </cc:Work>
    </rdf:RDF>
  </metadata>
  <sodipodi:namedview
          pagecolor="#ffffff"
          bordercolor="#666666"
          borderopacity="1"
          objecttolerance="10"
          gridtolerance="10"
          guidetolerance="10"
          inkscape:pageopacity="0"
          inkscape:pageshadow="2"
          inkscape:window-width="2548"
          inkscape:window-height="1407"
          id="namedview97"
          showgrid="true"
          inkscape:zoom="7.1704134"
          inkscape:cx="122.4489"
          inkscape:cy="62.084652"
          inkscape:window-x="2560"
          inkscape:window-y="0"
          inkscape:window-maximized="1"
          inkscape:current-layer="svg95">
    <inkscape:grid
            type="xygrid"
            id="grid101"
            originx="0"
            originy="0"/>
  </sodipodi:namedview>
  <defs
          id="defs15">
    <linearGradient
            x1="9.3335781"
            y1="27.814184"
            x2="9.3335781"
            y2="162.05122"
            id="mx-gradient-ffffff-1-fafafa-1-s-0"
            gradientTransform="scale(1.4091411,0.70965216)"
            gradientUnits="userSpaceOnUse">
      <stop
              offset="0%"
              style="stop-color:#FFFFFF"
              id="stop10"/>
      <stop
              offset="100%"
              style="stop-color:#FAFAFA"
              id="stop12"/>
    </linearGradient>
  </defs>
  <g
          id="g85"
          transform="translate(-0.5,-0.5)">
    <rect
            x="0"
            y="0"
            width="220"
            height="120"
            pointer-events="all"
            id="rect17"
            style="fill:none;stroke:none"/>
    <path
            d="M 52.5,37.5 C 10.5,37.5 0,65 33.6,70.5 0,82.6 37.8,109 65.1,98 84,120 147,120 168,98 210,98 210,76 183.75,65 210,43 168,21 131.25,32 105,15.5 63,15.5 52.5,37.5 Z"
            stroke-miterlimit="10"
            pointer-events="all"
            id="path19"
            inkscape:connector-curvature="0"
            style="fill:url(#mx-gradient-ffffff-1-fafafa-1-s-0);stroke:#e6e6e6;stroke-miterlimit:10"/>
    <ellipse
            cx="50.5"
            cy="75.5"
            rx="45.5"
            ry="35.5"
            pointer-events="all"
            id="ellipse21"
            style="fill:#fafafa;stroke:#e6e6e6"/>
    <ellipse
            cx="174"
            cy="78.5"
            rx="40"
            ry="31.5"
            pointer-events="all"
            id="ellipse23"
            style="fill:#fafafa;stroke:#e6e6e6"/>
    <rect
            x="127"
            y="10"
            width="80"
            height="75"
            pointer-events="all"
            id="rect25"
            style="fill:#ffffff;stroke:none"/>
    <rect
            x="127"
            y="25"
            width="60"
            height="3.75"
            pointer-events="all"
            id="rect27"
            style="fill:#008cff;stroke:none"/>
    <rect
            x="127"
            y="43.75"
            width="48"
            height="3.75"
            pointer-events="all"
            id="rect29"
            style="fill:#008cff;stroke:none"/>
    <rect
            x="127"
            y="62.5"
            width="76"
            height="3.75"
            pointer-events="all"
            id="rect31"
            style="fill:#008cff;stroke:none"/>
    <rect
            x="127"
            y="28.75"
            width="68"
            height="3.75"
            pointer-events="all"
            id="rect33"
            style="fill:#dddddd;stroke:none"/>
    <rect
            x="127"
            y="47.5"
            width="52"
            height="3.75"
            pointer-events="all"
            id="rect35"
            style="fill:#dddddd;stroke:none"/>
    <rect
            x="127"
            y="66.25"
            width="64"
            height="3.75"
            pointer-events="all"
            id="rect37"
            style="fill:#dddddd;stroke:none"/>
    <path
            d="m 127,10 v 75 h 80"
            stroke-miterlimit="10"
            pointer-events="all"
            id="path39"
            inkscape:connector-curvature="0"
            style="fill:none;stroke:#666666;stroke-width:2;stroke-miterlimit:10"/>
    <rect
            x="126"
            y="86"
            width="30"
            height="14"
            pointer-events="all"
            id="rect41"
            style="fill:#fafafa;stroke:none"/>
    <rect
            x="70"
            y="70"
            width="30"
            height="29"
            pointer-events="all"
            id="rect43"
            style="fill:#fafafa;stroke:none"/>
    <circle
            cx="57"
            cy="50"
            transform="matrix(-1,0,0,1,114,0)"
            pointer-events="all"
            id="ellipse45"
            r="45"
            style="fill:#ffffff;stroke:#000000"/>
    <path
            d="M 16.5,50 C 16.5,27.63 34.63,9.5 57,9.5 79.37,9.5 97.5,27.63 97.5,50 H 102 C 102,25.15 81.85,5 57,5 32.15,5 12,25.15 12,50 Z"
            transform="matrix(-1,0,0,1,114,0)"
            pointer-events="all"
            id="path47"
            inkscape:connector-curvature="0"
            style="fill:#ddeeff;stroke:none"/>
    <path
            d="m 16.5,50 c 0.01,10.74 4.28,21.03 11.88,28.62 l -3.24,3.24 C 16.71,73.4 11.98,61.94 12,50 Z"
            transform="matrix(-1,0,0,1,114,0)"
            pointer-events="all"
            id="path49"
            inkscape:connector-curvature="0"
            style="fill:#99ccff;stroke:none"/>
    <path
            d="m 102,50 c 0.02,11.94 -4.71,23.4 -13.14,31.86 L 85.62,78.62 C 93.22,71.03 97.49,60.74 97.5,50 Z"
            transform="matrix(-1,0,0,1,114,0)"
            pointer-events="all"
            id="path51"
            inkscape:connector-curvature="0"
            style="fill:#bbddff;stroke:none"/>
    <g
            font-size="12px"
            transform="matrix(-1,0,0,1,114,0)"
            id="g53"
            style="font-size:12px;font-family:Arial, Helvetica;text-anchor:middle;fill:#666666"/>
    <g
            font-size="12px"
            transform="matrix(-1,0,0,1,114,0)"
            id="g55"
            style="font-size:12px;font-family:Arial, Helvetica;fill:#666666"/>
    <g
            font-size="12px"
            transform="matrix(-1,0,0,1,114,0)"
            id="g57"
            style="font-size:12px;font-family:Arial, Helvetica;text-anchor:end;fill:#666666"/>
    <path
            d="m 25.4,36.91 33.32,8.93 c 1.1,0.46 1.98,1.34 2.44,2.44 0.45,1.1 0.45,2.34 0,3.44 -0.46,1.1 -1.34,1.98 -2.44,2.44 -1.1,0.45 -2.34,0.45 -3.44,0 z"
            transform="matrix(-1,0,0,1,114,0)"
            pointer-events="all"
            id="path59"
            inkscape:connector-curvature="0"
            style="fill:#008cff;stroke:none"/>
    <path
            d="m 56.1,49.1 h 1.8 v 1.8 h -1.8 z"
            transform="matrix(-1,0,0,1,114,0)"
            pointer-events="all"
            id="path61"
            inkscape:connector-curvature="0"
            style="fill:#ffffff;stroke:none"/>
    <circle
            cx="57"
            cy="50"
            transform="matrix(-1,0,0,1,114,0)"
            pointer-events="all"
            id="ellipse63"
            r="45"
            style="fill:none;stroke:#000000"/>
    <path
            d="m 25.14,81.86 6.57,-6.57 m 57.15,6.57 -6.57,-6.57"
            stroke-miterlimit="10"
            transform="matrix(-1,0,0,1,114,0)"
            pointer-events="all"
            id="path65"
            inkscape:connector-curvature="0"
            style="fill:none;stroke:#000000;stroke-miterlimit:10"/>
    <g
            transform="translate(-0.5,-0.5)"
            id="g71">
      <switch
              id="switch69">
        <foreignObject
                style="overflow: visible; text-align: left;"
                pointer-events="none"
                width="100%"
                height="100%"
                requiredFeatures="http://www.w3.org/TR/SVG11/feature#Extensibility">
          <xhtml:div
                  style="display: flex; align-items: unsafe center; justify-content: unsafe center; width: 1px; height: 1px; padding-top: 29px; margin-left: 57px;">
            <xhtml:div
                    style="box-sizing: border-box; font-size: 0; text-align: center; ">
              <xhtml:div
                      style="display: inline-block; font-size: 12px; font-family: Helvetica; color: #666666; line-height: 1.2; pointer-events: all; white-space: nowrap; ">
                CPU[%]
              </xhtml:div>
            </xhtml:div>
          </xhtml:div>
        </foreignObject>
        <text
                x="57"
                y="33"
                font-size="12px"
                id="text67"
                style="font-size:12px;font-family:Helvetica;text-anchor:middle;fill:#666666">CPU[%]
        </text>
      </switch>
    </g>
    <g
            transform="translate(-0.5,-0.5)"
            id="g77">
      <switch
              id="switch75">
        <foreignObject
                style="overflow: visible; text-align: left;"
                pointer-events="none"
                width="100%"
                height="100%"
                requiredFeatures="http://www.w3.org/TR/SVG11/feature#Extensibility">
          <xhtml:div
                  style="display: flex; align-items: unsafe center; justify-content: unsafe flex-start; width: 1px; height: 1px; padding-top: 81px; margin-left: 32px;">
            <xhtml:div
                    style="box-sizing: border-box; font-size: 0; text-align: left; ">
              <xhtml:div
                      style="display: inline-block; font-size: 12px; font-family: Helvetica; color: #666666; line-height: 1.2; pointer-events: all; white-space: nowrap; ">
                0
              </xhtml:div>
            </xhtml:div>
          </xhtml:div>
        </foreignObject>
        <text
                x="32"
                y="84"
                font-size="12px"
                id="text73"
                style="font-size:12px;font-family:Helvetica;fill:#666666">0
        </text>
      </switch>
    </g>
    <g
            transform="translate(-0.5,-0.5)"
            id="g83">
      <switch
              id="switch81">
        <foreignObject
                style="overflow: visible; text-align: left;"
                pointer-events="none"
                width="100%"
                height="100%"
                requiredFeatures="http://www.w3.org/TR/SVG11/feature#Extensibility">
          <xhtml:div
                  style="display: flex; align-items: unsafe center; justify-content: unsafe flex-end; width: 1px; height: 1px; padding-top: 81px; margin-left: 82px;">
            <xhtml:div
                    style="box-sizing: border-box; font-size: 0; text-align: right; ">
              <xhtml:div
                      style="display: inline-block; font-size: 12px; font-family: Helvetica; color: #666666; line-height: 1.2; pointer-events: all; white-space: nowrap; ">
                100
              </xhtml:div>
            </xhtml:div>
          </xhtml:div>
        </foreignObject>
        <text
                x="82"
                y="84"
                font-size="12px"
                id="text79"
                style="font-size:12px;font-family:Helvetica;text-anchor:end;fill:#666666">100
        </text>
      </switch>
    </g>
  </g>
</svg>

<?xml version="1.0" encoding="UTF-8"?>
<!DOCTYPE svg PUBLIC "-//W3C//DTD SVG 1.1//EN" "http://www.w3.org/Graphics/SVG/1.1/DTD/svg11.dtd">
<svg xmlns="http://www.w3.org/2000/svg" xmlns:xlink="http://www.w3.org/1999/xlink" version="1.1" width="221px"
     height="121px" viewBox="-0.5 -0.5 221 121">
    <defs>
        <linearGradient x1="0%" y1="0%" x2="0%" y2="100%" id="mx-gradient-ffffff-1-fafafa-1-s-0">
            <stop offset="0%" style="stop-color:#FFFFFF"/>
            <stop offset="100%" style="stop-color:#FAFAFA"/>
        </linearGradient>
    </defs>
    <g>
        <rect x="0" y="0" width="220" height="120" fill="none" stroke="none" pointer-events="all"/>
        <path d="M 52.5 37.5 C 10.5 37.5 0 65 33.6 70.5 C 0 82.6 37.8 109 65.1 98 C 84 120 147 120 168 98 C 210 98 210 76 183.75 65 C 210 43 168 21 131.25 32 C 105 15.5 63 15.5 52.5 37.5 Z"
              fill="url(#mx-gradient-ffffff-1-fafafa-1-s-0)" stroke="#e6e6e6" stroke-miterlimit="10"
              pointer-events="all"/>
        <ellipse cx="50.5" cy="75.5" rx="45.5" ry="35.5" fill="#fafafa" stroke="#e6e6e6" pointer-events="all"/>
        <ellipse cx="174" cy="78.5" rx="40" ry="31.5" fill="#fafafa" stroke="#e6e6e6" pointer-events="all"/>
        <rect x="127" y="10" width="80" height="75" fill="#ffffff" stroke="none" pointer-events="all"/>
        <rect x="127" y="25" width="60" height="3.75" fill="#008cff" stroke="none" pointer-events="all"/>
        <rect x="127" y="43.75" width="48" height="3.75" fill="#008cff" stroke="none" pointer-events="all"/>
        <rect x="127" y="62.5" width="76" height="3.75" fill="#008cff" stroke="none" pointer-events="all"/>
        <rect x="127" y="28.75" width="68" height="3.75" fill="#dddddd" stroke="none" pointer-events="all"/>
        <rect x="127" y="47.5" width="52" height="3.75" fill="#dddddd" stroke="none" pointer-events="all"/>
        <rect x="127" y="66.25" width="64" height="3.75" fill="#dddddd" stroke="none" pointer-events="all"/>
        <path d="M 127 10 L 127 85 L 207 85" fill="none" stroke="#666666" stroke-width="2" stroke-miterlimit="10"
              pointer-events="all"/>
        <rect x="126" y="86" width="30" height="14" fill="#fafafa" stroke="none" pointer-events="all"/>
        <rect x="70" y="70" width="30" height="29" fill="#fafafa" stroke="none" pointer-events="all"/>
        <ellipse cx="57" cy="50" rx="45" ry="45" fill="#ffffff" stroke="#000000"
                 transform="translate(57,0)scale(-1,1)translate(-57,0)" pointer-events="all"/>
        <path d="M 16.5 50 C 16.5 27.63 34.63 9.5 57 9.5 C 79.37 9.5 97.5 27.63 97.5 50 L 102 50 C 102 25.15 81.85 5 57 5 C 32.15 5 12 25.15 12 50 Z"
              fill="#ddeeff" stroke="none" transform="translate(57,0)scale(-1,1)translate(-57,0)" pointer-events="all"/>
        <path d="M 16.5 50 C 16.51 60.74 20.78 71.03 28.38 78.62 L 25.14 81.86 C 16.71 73.4 11.98 61.94 12 50 Z"
              fill="#99ccff" stroke="none" transform="translate(57,0)scale(-1,1)translate(-57,0)" pointer-events="all"/>
        <path d="M 102 50 C 102.02 61.94 97.29 73.4 88.86 81.86 L 85.62 78.62 C 93.22 71.03 97.49 60.74 97.5 50 Z"
              fill="#bbddff" stroke="none" transform="translate(57,0)scale(-1,1)translate(-57,0)" pointer-events="all"/>
        <g fill="#666666" font-family="Arial,Helvetica" text-anchor="middle" font-size="12px"
           transform="translate(57,0)scale(-1,1)translate(-57,0)"/>
        <g fill="#666666" font-family="Arial,Helvetica" font-size="12px"
           transform="translate(57,0)scale(-1,1)translate(-57,0)"/>
        <g fill="#666666" font-family="Arial,Helvetica" text-anchor="end" font-size="12px"
           transform="translate(57,0)scale(-1,1)translate(-57,0)"/>
        <path d="M 25.4 36.91 L 58.72 45.84 C 59.82 46.3 60.7 47.18 61.16 48.28 C 61.61 49.38 61.61 50.62 61.16 51.72 C 60.7 52.82 59.82 53.7 58.72 54.16 C 57.62 54.61 56.38 54.61 55.28 54.16 Z"
              fill="#008cff" stroke="none" transform="translate(57,0)scale(-1,1)translate(-57,0)" pointer-events="all"/>
        <path d="M 56.1 49.1 L 57.9 49.1 L 57.9 50.9 L 56.1 50.9 Z" fill="#ffffff" stroke="none"
              transform="translate(57,0)scale(-1,1)translate(-57,0)" pointer-events="all"/>
        <ellipse cx="57" cy="50" rx="45" ry="45" fill="none" stroke="#000000"
                 transform="translate(57,0)scale(-1,1)translate(-57,0)" pointer-events="all"/>
        <path d="M 25.14 81.86 L 31.71 75.29 M 88.86 81.86 L 82.29 75.29" fill="none" stroke="#000000"
              stroke-miterlimit="10" transform="translate(57,0)scale(-1,1)translate(-57,0)" pointer-events="all"/>
        <g transform="translate(-0.5 -0.5)">
            <switch>
                <foreignObject style="overflow: visible; text-align: left;" pointer-events="none" width="100%"
                               height="100%" requiredFeatures="http://www.w3.org/TR/SVG11/feature#Extensibility">
                    <div xmlns="http://www.w3.org/1999/xhtml"
                         style="display: flex; align-items: unsafe center; justify-content: unsafe center; width: 1px; height: 1px; padding-top: 29px; margin-left: 57px;">
                        <div style="box-sizing: border-box; font-size: 0; text-align: center; ">
                            <div style="display: inline-block; font-size: 12px; font-family: Helvetica; color: #666666; line-height: 1.2; pointer-events: all; white-space: nowrap; ">
                                CPU[%]
                            </div>
                        </div>
                    </div>
                </foreignObject>
                <text x="57" y="33" fill="#666666" font-family="Helvetica" font-size="12px" text-anchor="middle">
                    CPU[%]
                </text>
            </switch>
        </g>
        <g transform="translate(-0.5 -0.5)">
            <switch>
                <foreignObject style="overflow: visible; text-align: left;" pointer-events="none" width="100%"
                               height="100%" requiredFeatures="http://www.w3.org/TR/SVG11/feature#Extensibility">
                    <div xmlns="http://www.w3.org/1999/xhtml"
                         style="display: flex; align-items: unsafe center; justify-content: unsafe flex-start; width: 1px; height: 1px; padding-top: 81px; margin-left: 32px;">
                        <div style="box-sizing: border-box; font-size: 0; text-align: left; ">
                            <div style="display: inline-block; font-size: 12px; font-family: Helvetica; color: #666666; line-height: 1.2; pointer-events: all; white-space: nowrap; ">
                                0
                            </div>
                        </div>
                    </div>
                </foreignObject>
                <text x="32" y="84" fill="#666666" font-family="Helvetica" font-size="12px">0</text>
            </switch>
        </g>
        <g transform="translate(-0.5 -0.5)">
            <switch>
                <foreignObject style="overflow: visible; text-align: left;" pointer-events="none" width="100%"
                               height="100%" requiredFeatures="http://www.w3.org/TR/SVG11/feature#Extensibility">
                    <div xmlns="http://www.w3.org/1999/xhtml"
                         style="display: flex; align-items: unsafe center; justify-content: unsafe flex-end; width: 1px; height: 1px; padding-top: 81px; margin-left: 82px;">
                        <div style="box-sizing: border-box; font-size: 0; text-align: right; ">
                            <div style="display: inline-block; font-size: 12px; font-family: Helvetica; color: #666666; line-height: 1.2; pointer-events: all; white-space: nowrap; ">
                                100
                            </div>
                        </div>
                    </div>
                </foreignObject>
                <text x="82" y="84" fill="#666666" font-family="Helvetica" font-size="12px" text-anchor="end">100</text>
            </switch>
        </g>
    </g>
    <switch>
        <g requiredFeatures="http://www.w3.org/TR/SVG11/feature#Extensibility"/>
        <a transform="translate(0,-5)" xlink:href="https://www.diagrams.net/doc/faq/svg-export-text-problems"
           target="_blank">
            <text text-anchor="middle" font-size="10px" x="50%" y="100%">Viewer does not support full SVG 1.1</text>
        </a>
    </switch>
</svg>
